X: 21
T:Kelvingrove
% Nottingham Music Database
S:Kevin Briggs
M:3/4
L:1/4
K:G
G/2A/2|"G"B2d|"D/a"A2B|"G/b"G2F|"G"E2D|"C"E3|"A7/c+"A2B|"D7"A3-|"D7"AGA|
"G"B2d|"D/a"A2B|"G/b"G2F|"G"E2D|"C"E3|"Cm"G2A|"G"G3-|"G"GAB||
"Am"c2B|"Am7/g"c2d|"D7/f+"e3-|"D7"eBc|"G"d2B|"A7/c+"A2G|"D7"A3-|"D7"AGA|
"G"B2d|"D/f+"A2B|"Em"G2F|"Em"E2D|"C"E3|"Cm"G2A|"G"G3-|"G"G2||


